X: 116005
Q: "Strathspey."
M: C
L: 1/16
K: A
|: ue2 |\
vAuA3 ve3uB vc3vB (Aa3) | AA3 ve3uc vd3vc (Be3) |\
!segno! ue2 |\
cA3 a3g aA3 A3e | cA3 a3f =g3B B3e |
cA3 a3g a3Aa3e |[1 fa3 e=g3 d3c B2 :|[2 (3f2g2a2 (3e2f2=g2 d3c B2 |]\
e2 |\
dcBA A,3e cA3 A3e | dcBA A,3e dB3 B3e |
dcBA A,3e dcBA A,3e | dcBA A,3e dB3 B3e |\
dcBA A,3e cA3 A3e | dcBA A,3e dB3 B3e |\
dcBA A,3A A,2AB c3A | A,2AB c3A "_D.C. to fine"d3c B2 |]


